X: 341
T: Billy McCormick
C: anon.
O: Ireland
B: Francis O'Neill: "The Dance Music of Ireland" (1907) no. 341
R: Double jig
Z: Transcribed by Frank Nordberg - http://www.musicaviva.com
F: http://www.musicaviva.com/abc/tunes/ireland/oneill-1001/oneill-1001-034
1.abc
M: 6/8
L: 1/8
K: Ador
E|ABA AB(d|e)dB (gf)e|GAG BAG|dBG AGE|ABA AB(d|e)d(B d)ef|(gf)(e f)dB-|BA
G A2:|
||e|aga ag(e|a)ba (ag)e|gfg gd(B|G)Bc d(eg)|aba ga(g|e)d(B c)de|(gf)(e f)
dB-|BAG A2:|
W:
W:
W: From Musica Viva - http://www.musicaviva.com
W: the Internet center for free sheet music downloads.


